build/images/world.svg

<?xml version="1.0" encoding="UTF-8"?>
<svg width="33px" height="32px" viewBox="0 0 33 32" version="1.1" xmlns="http://www.w3.org/2000/svg" xmlns:xlink="http://www.w3.org/1999/xlink">
    <!-- Generator: sketchtool 63.1 (101010) - https://sketch.com -->
    <title>779BEF42-2EA3-4E6A-AE19-119500BF7CEA</title>
    <desc>Created with sketchtool.</desc>
    <g id="Page-1" stroke="none" stroke-width="1" fill="none" fill-rule="evenodd">
        <g id="Kupa-shop-main-1" transform="translate(-1406.000000, -163.000000)" fill="#333333" fill-rule="nonzero">
            <g id="header" transform="translate(0.000000, 20.000000)">
                <g id="world" transform="translate(1406.463542, 143.000000)">
                    <path d="M24.2542385,29.0010625 C24.0809332,28.7026875 23.6982225,28.6010625 23.3991613,28.7741875 L23.3750737,28.7880625 C23.0762628,28.96125 22.9745945,29.3436875 23.1478998,29.64225 C23.2639581,29.8420625 23.473864,29.9536875 23.6895885,29.9536875 C23.7960743,29.9536875 23.9041868,29.926375 24.0029771,29.869125 L24.0270646,29.85525 C24.3258756,29.6820625 24.4275439,29.299625 24.2542385,29.0010625 Z" id="Path"></path>
                    <path d="M29.8869749,8.005 C27.7483745,4.3046875 24.2953438,1.657875 20.1639197,0.552 C16.0326208,-0.553875 11.7173804,0.0136875 8.01321341,2.15 C4.30910898,4.2863125 1.65947682,7.7358125 0.552512435,11.862875 C-0.554451953,15.9899375 0.0136391927,20.30075 2.15217702,24.001 C4.07048568,27.3201875 7.11940833,29.84275 10.737298,31.103875 C12.4522701,31.701625 14.2425706,31.9999375 16.0301182,31.9999375 C17.9737031,31.9999375 19.9137844,31.6470625 21.7476302,30.943 C22.0701533,30.8191875 22.2310708,30.457625 22.1070667,30.1354375 C21.9830627,29.81325 21.621061,29.6523125 21.298663,29.776375 C16.4173336,31.6505625 11.1329598,30.799 7.184914,27.838625 L7.74543477,24.9158125 L8.01552832,24.8281875 C9.03615286,24.4969375 9.5967362,23.3979375 9.26526628,22.3783125 L9.06706003,21.769 C9.0211998,21.628 9.02145007,21.4789375 9.06768568,21.3380625 C9.2415541,20.8085625 9.17942695,20.22925 8.89719577,19.7485 C8.61496458,19.2678125 8.13915697,18.93075 7.59164974,18.8238125 L6.17955534,18.5481875 L3.45497018,16.4788125 C3.29173783,16.3548125 3.07807799,16.318625 2.883,16.381875 L1.2878401,16.8995 C1.25399238,16.3295625 1.25349186,15.7598125 1.28565033,15.1930625 C1.34859082,15.251625 1.38957096,15.2914375 1.4147847,15.3175625 C1.44600469,15.3695 1.48466992,15.417125 1.52996706,15.458375 C1.6602276,15.576875 1.77822539,15.630625 2.0259832,15.630625 C2.25365762,15.6305625 2.59069583,15.58525 3.14721243,15.503125 C3.67501165,15.4251875 4.20005801,15.337375 4.20525091,15.3365 C4.41565736,15.3013125 4.59352995,15.1613125 4.67724206,14.965375 C4.76095417,14.769375 4.73886868,14.5443125 4.61868112,14.3681875 L3.85157038,13.2441875 L4.95033874,12.4593125 C5.02353991,12.407 5.08460345,12.3395625 5.1293375,12.2615625 L6.83254733,9.29125 L7.51907422,8.556375 C8.22061673,7.80525 8.42082507,6.7063125 8.02904238,5.7565625 C7.79792689,5.196375 7.39425684,4.73 6.88935645,4.4156875 C7.43617546,3.98625 8.01921966,3.58975 8.63886445,3.2324375 C10.9123552,1.9211875 13.393437,1.28575 15.8484291,1.2614375 L14.7312666,2.661375 L10.5885182,4.1121875 C10.4202807,4.1710625 10.28514,4.2989375 10.2171943,4.4635625 L9.06024043,7.2653125 C8.97809245,7.464375 9.0041821,7.6915 9.12937487,7.86675 L10.8191332,10.23125 C10.5771314,10.4518125 10.3415738,10.7730625 10.0602185,11.1719375 C9.9368401,11.346875 9.82034388,11.5120625 9.73982259,11.6046875 C9.66981224,11.6853125 9.59973932,11.7640625 9.53029206,11.8420625 C9.16685137,12.2505 8.79108535,12.6729375 8.52412005,13.2371875 C7.93713424,14.478375 8.05569512,15.921 8.83350449,17.002125 C9.58559961,18.0474375 10.8255148,18.5788125 12.1488919,18.4233125 C12.3644913,18.3980625 12.565513,18.348375 12.7600279,18.30025 C13.2963985,18.1676875 13.4663253,18.1544375 13.6383794,18.3153125 C13.7220915,18.393625 13.729787,18.4084375 13.7280977,18.674 C13.726909,18.843 13.7255951,19.05325 13.7839058,19.2933125 C13.8773155,19.677375 14.1187542,19.9428125 14.3127061,20.1560625 C14.4091189,20.262 14.5088477,20.371625 14.5395671,20.4451875 C14.7347077,20.9123125 14.6497443,21.171 14.4635505,21.737875 C14.4475964,21.786375 14.4313295,21.835875 14.415,21.886625 C14.1321432,22.7613125 14.5264285,23.6289375 14.8742904,24.3943125 C14.987283,24.642875 15.0939565,24.8775 15.1638417,25.084875 C15.7263646,26.7523125 16.1480534,27.1341875 16.486468,27.2879375 C16.663715,27.3684375 16.8471559,27.40375 17.0324737,27.4036875 C17.9343497,27.403625 18.875454,26.567125 19.3077788,26.0368125 C19.5793114,25.7038125 19.6461935,25.370375 19.6949943,25.1268125 C19.7193321,25.0056875 19.738477,24.9100625 19.775015,24.8475625 C19.8309482,24.7519375 19.8968293,24.6778125 19.9802286,24.5839375 C20.1479656,24.39525 20.3567454,24.1605 20.4919486,23.7349375 C20.5946805,23.4116875 20.6693206,23.3324375 20.9165154,23.0694375 C20.9595602,23.02375 21.0054204,22.974875 21.0546591,22.921375 C21.8879637,22.0155625 21.6733654,21.323625 21.4460664,20.591 C21.2548049,19.9745625 21.5893405,19.5803125 22.3981822,18.827875 C22.748797,18.5016875 23.1112992,18.1644375 23.3915283,17.7591875 C23.5141559,17.5818125 23.8872316,17.04225 23.6563664,16.5074375 C23.4300684,15.9830625 22.8549074,15.8949375 22.3928016,15.8241875 C22.2102992,15.7961875 21.9345122,15.7539375 21.8467333,15.696625 C21.459643,15.4438125 21.2228341,14.9161875 20.9937833,14.405875 C20.9481733,14.3043125 20.903189,14.2040625 20.857579,14.10675 C20.7762444,13.933125 20.6949723,13.7230625 20.6089453,13.5006875 C20.3813335,12.9121875 20.1233775,12.245125 19.6842331,11.780125 C19.2895098,11.3623125 18.545423,11.1610625 17.8889274,10.9834375 C17.6681352,10.92375 17.4597308,10.867375 17.3222753,10.8166875 C17.2070929,10.7741875 17.0820878,10.7665 16.9628387,10.7945 C16.6433187,10.8693125 16.4439863,10.95175 16.2959573,11.07025 C16.2568541,11.1015625 16.1410461,11.204375 16.0732255,11.369625 C15.8441747,11.2598125 15.5292219,11.050125 15.3353952,10.9210625 C15.3313911,10.918375 15.3273243,10.9156875 15.3233202,10.913 C15.3886382,10.651875 15.3295141,10.4423125 15.2675747,10.3114375 C14.918086,9.5729375 13.7579413,9.63075 13.5290781,9.6501875 C13.3990678,9.6610625 13.2345842,9.666875 13.0605906,9.673 C12.7873062,9.6826875 12.4852419,9.6935625 12.1863684,9.7270625 L12.2017594,9.6841875 C12.4286205,9.05275 13.0322486,8.6285 13.7038225,8.6285 L14.0595051,8.6285 C14.404927,8.6285 14.6850936,8.348625 14.6850936,8.0035625 C14.6850936,7.6585 14.404927,7.378625 14.0595051,7.378625 L13.7038225,7.378625 C12.706785,7.378625 11.7937724,7.9028125 11.2820524,8.727875 L10.3488939,7.4220625 L11.2669742,5.199 L15.3151242,3.78125 C15.4261146,3.742375 15.5239665,3.673 15.5973553,3.5810625 L17.3969154,1.326125 C21.9950752,1.7630625 26.3233291,4.3384375 28.803535,8.6298125 C29.4641599,9.772875 29.9528559,10.97625 30.2777565,12.2070625 L30.012543,12.4433125 C29.6663703,12.751875 29.4635342,13.1944375 29.4557762,13.657625 C29.4557136,13.6626875 29.4555885,13.6676875 29.4554008,13.6726875 L29.0233262,12.4856875 C28.9589467,12.3085625 28.864098,12.146125 28.7415955,12.0029375 L27.970856,11.1015 C27.6720451,10.7520625 27.2369673,10.55175 26.7770512,10.55175 L25.833632,10.55175 C25.498721,10.55175 25.1926525,10.735 25.0346757,11.0298125 C24.8766988,11.3246875 24.8939667,11.6808125 25.0797225,11.9590625 L25.1751969,12.10225 C24.5655625,12.6259375 23.8604538,13.045 23.1096725,13.327625 L21.8164518,10.8530625 L21.8164518,10.301 C21.8164518,10.13025 21.746504,9.9668125 21.6228128,9.849 L20.4582885,8.7384375 C20.3940342,8.6771875 20.3174545,8.6303125 20.2336798,8.600875 L19.1854015,8.232875 C18.8592496,8.11825 18.5022531,8.2896875 18.387759,8.61525 C18.2732023,8.9409375 18.4445681,9.297625 18.7705323,9.4120625 L19.6917409,9.7355 L20.5652749,10.5684375 L20.5652749,11.0064375 C20.5652749,11.107125 20.5896753,11.206375 20.6363488,11.2956875 L22.255346,14.393625 C22.400935,14.672375 22.7314039,14.79975 23.0263358,14.69075 L23.4977639,14.517125 C24.592966,14.113625 25.6080848,13.4645625 26.4334437,12.6401875 C26.6442881,12.4295 26.6770722,12.0995625 26.5115875,11.851625 L26.4783029,11.8016875 L26.7770512,11.8016875 C26.8704609,11.8016875 26.9588654,11.842375 27.0195536,11.913375 L27.7902931,12.8148125 C27.8151314,12.843875 27.8343389,12.87675 27.8474776,12.9128125 L28.6980502,15.24925 C28.7711262,15.45 28.9418038,15.5995 29.1503959,15.64575 C29.1954428,15.6556875 29.2408025,15.6605625 29.2859119,15.6605625 C29.4500202,15.6605625 29.6097489,15.596 29.7282472,15.4775 L30.133106,15.0730625 C30.3894978,14.816875 30.5659939,14.49275 30.6503317,14.1334375 C31.2764833,19.14625 29.3088733,24.33175 25.1499206,27.592625 C24.8780752,27.8056875 24.8306508,28.1985 25.0440604,28.4700625 C25.2573449,28.741625 25.650504,28.789 25.9224119,28.5758125 C28.9250364,26.221625 30.9878079,22.8544375 31.7307685,19.0945 C32.4806738,15.2983125 31.82593,11.359875 29.8869749,8.005 Z M2.95820326,17.6716875 L5.5379502,19.631125 C5.61421706,19.6890625 5.70268411,19.7286875 5.7966569,19.747 L7.35152487,20.0505 C7.54998138,20.08925 7.71552865,20.2065 7.81782259,20.38075 C7.92011654,20.5549375 7.94163893,20.7565 7.87869844,20.9484375 C7.74918867,21.343 7.74856302,21.7603125 7.87700918,22.155125 L8.07521543,22.764375 C8.19365117,23.1285 7.99331771,23.5210625 7.62887598,23.639375 L7.00716654,23.8411875 C6.79025332,23.9115625 6.62896048,24.0943125 6.58610339,24.3179375 L6.08570768,26.92725 C4.98562546,25.9214375 4.01974538,24.7326875 3.23574206,23.376125 C2.27924674,21.7213125 1.68162487,19.95625 1.41822578,18.1715 L2.95820326,17.6716875 Z M6.60430983,7.703625 L5.86835651,8.4913125 C5.83550983,8.5265 5.80679245,8.565375 5.78283001,8.607125 L4.11159095,11.521875 L2.62623281,12.582875 C2.34956992,12.7805 2.28162422,13.1625625 2.47319857,13.4433125 L3.02871413,14.2573125 C2.70850592,14.3049375 2.4211444,14.3441875 2.23007057,14.365 C2.19334486,14.3298125 2.15492988,14.294125 2.11520104,14.25725 C1.96648379,14.11925 1.75983125,13.9349375 1.45176068,13.665625 C1.95985189,10.5241875 3.47517871,7.5646875 5.85840866,5.305625 C6.31475853,5.4491875 6.68927324,5.78925 6.87221361,6.2328125 C7.0780528,6.7316875 6.97281829,7.3090625 6.60430983,7.703625 Z M11.7052428,11.1188125 C11.9842831,10.9619375 12.6319571,10.939 13.1048242,10.92225 C13.2943339,10.9155625 13.4733952,10.9091875 13.6333116,10.8958125 C13.7177119,10.88875 13.8114344,10.8900625 13.8998389,10.8969375 C13.8603604,10.9981875 13.8475345,11.1093125 13.8646773,11.2195625 C13.8947712,11.4135 14.0144582,11.5819375 14.1876384,11.6745 C14.3050105,11.73725 14.468368,11.8460625 14.641298,11.96125 C15.1302443,12.286875 15.6845085,12.6559375 16.2051753,12.6890625 C16.678668,12.71975 16.9421297,12.4501875 17.0549971,12.335375 C17.0640065,12.32625 17.0725154,12.317125 17.0815247,12.3088125 C17.1450909,12.2570625 17.2046529,12.1876875 17.248949,12.104 C17.3489906,12.1325625 17.4540999,12.161 17.561837,12.1901875 C17.932285,12.290375 18.621815,12.476875 18.7741611,12.638125 C19.0447551,12.9246875 19.2556621,13.470125 19.4417933,13.9513125 C19.5358286,14.1945 19.6246711,14.424 19.7243373,14.6368125 C19.7671318,14.728125 19.8092382,14.8221875 19.8520327,14.9174375 C20.1407081,15.5606875 20.4679236,16.2898125 21.1620834,16.7430625 C21.4768484,16.948625 21.8626874,17.0076875 22.2031667,17.059875 C22.2443346,17.0661875 22.2915087,17.0734375 22.3394335,17.0813125 C22.1373482,17.3629375 21.8496113,17.6305625 21.5456075,17.913375 C20.7711141,18.633875 19.8072361,19.530625 20.2511355,20.9611875 C20.460666,21.6366875 20.4704262,21.7096875 20.1335131,22.0758125 C20.0875903,22.12575 20.0447958,22.17125 20.0046915,22.213875 C19.7161413,22.52075 19.4882166,22.763125 19.2995202,23.356875 C19.2447132,23.5293125 19.1737018,23.6091875 19.0447551,23.7541875 C18.9416479,23.8701875 18.8132017,24.0146875 18.694766,24.2171875 C18.5528683,24.4598125 18.5059445,24.6934375 18.4683428,24.881125 C18.4312417,25.0658125 18.4102199,25.1585 18.3376443,25.2475 C18.1724099,25.450125 17.8642142,25.744375 17.5478225,25.9451875 C17.2537665,26.1316875 17.0820878,26.1571875 17.0235895,26.1536875 C16.9568325,26.0821875 16.7150184,25.769125 16.3496382,24.6858125 C16.2595444,24.4185625 16.1345393,24.1435625 16.0136635,23.877625 C15.7471988,23.291375 15.4717246,22.685125 15.6057391,22.2708125 C15.621568,22.2219375 15.6372093,22.1741875 15.6526003,22.1275 C15.8666981,21.475625 16.0687834,20.8600625 15.6943938,19.9638125 C15.5804002,19.690875 15.3988988,19.4914375 15.2389199,19.3154375 C15.1353746,19.201625 15.018065,19.072625 14.9999837,18.998375 C14.9779608,18.9078125 14.978649,18.80325 14.9794624,18.6821875 C14.9815896,18.355625 14.984843,17.8621875 14.4937695,17.4028125 C13.801424,16.7554375 12.9940839,16.954875 12.4597779,17.086875 C12.2956697,17.127375 12.1406333,17.16575 12.0032404,17.181875 C11.1243258,17.28475 10.3396342,16.9535 9.84974948,16.2725 C9.33727871,15.5601875 9.2628888,14.601625 9.65567253,13.771 C9.84580788,13.3690625 10.1330443,13.046125 10.4656404,12.672375 C10.5382785,12.5906875 10.6116048,12.5083125 10.6849311,12.4239375 C10.806933,12.2834375 10.9411977,12.0931875 11.0831579,11.89175 C11.2526468,11.6514375 11.5682252,11.2039375 11.7052428,11.1188125 Z" id="Shape"></path>
                    <path d="M25.6530691,21.517375 L25.3520684,20.384 C25.2863125,20.1365 25.0760937,19.954125 24.8216415,19.92375 C24.5668764,19.894 24.3198068,20.02125 24.197492,20.2463125 C24.1289206,20.3725625 24.0671689,20.5063125 24.0074818,20.635625 C23.9070648,20.8531875 23.8032067,21.0781875 23.6951568,21.202375 C23.6344686,21.272125 23.4785564,21.3473125 23.3278996,21.4199375 C22.9677123,21.5935625 22.4743865,21.831375 22.2859404,22.4315 C22.1689436,22.80375 22.2126141,23.09825 22.2445223,23.31325 C22.2721135,23.4996875 22.2784951,23.5643125 22.2285056,23.6815625 L22.2222491,23.696125 C22.0231044,24.1629375 21.6525938,25.032 22.1721344,25.7708125 C22.5428327,26.2980625 22.9326133,26.4336299 23.235491,26.4336299 C23.294615,26.4338125 23.3505482,26.428625 23.4022895,26.4201875 C24.0404536,26.316 24.5202028,25.652875 24.9122357,24.333125 L25.6481265,21.8555625 C25.680848,21.745375 25.6825999,21.628375 25.6530691,21.517375 Z M23.7128001,23.9775625 C23.5129672,24.6504375 23.3361582,24.9645625 23.2341145,25.1038125 C23.2223523,25.0888125 23.209589,25.0718125 23.1959498,25.052375 C23.0763879,24.88225 23.2550738,24.46325 23.3733219,24.1859375 L23.379641,24.1713125 C23.5703394,23.7241875 23.5193488,23.3808125 23.4822477,23.1300625 C23.4584104,22.9695 23.4499016,22.9005 23.4797451,22.8056875 C23.5042706,22.72775 23.6508607,22.652125 23.8717155,22.545625 C23.9696299,22.498375 24.0774296,22.4464375 24.1862303,22.3835625 L23.7128001,23.9775625 Z" id="Shape"></path>
                    <path d="M16.8944551,7.42875 L16.8522236,7.414 C16.5264471,7.3 16.1692004,7.4711875 16.0548314,7.796875 C15.9404624,8.122625 16.1120785,8.4791875 16.4381052,8.5934375 L16.4802741,8.6081875 C16.5487829,8.6321875 16.6186055,8.6435625 16.6873646,8.6435625 C16.9456333,8.6435625 17.1873849,8.4825 17.2777289,8.2253125 C17.3920979,7.8995625 17.2204818,7.5429375 16.8944551,7.42875 Z" id="Path"></path>
                </g>
            </g>
        </g>
    </g>
</svg>

<svg width="33" height="32" xmlns="http://www.w3.org/2000/svg"><g id="Page-1" stroke="none" stroke-width="1" fill="none" fill-rule="evenodd"><g id="Kupa-shop-main-1" transform="translate(-1406 -163)" fill="#333" fill-rule="nonzero"><g id="header" transform="translate(0 20)"><g id="world" transform="translate(1406.464 143)"><path d="M24.254 29.001a.626.626 0 00-.855-.227l-.024.014a.625.625 0 10.628 1.081l.024-.014a.625.625 0 00.227-.854z" id="Path"/><path d="M29.887 8.005A15.906 15.906 0 0020.164.552 15.922 15.922 0 008.014 2.15a15.893 15.893 0 00-7.461 9.713A15.877 15.877 0 002.153 24a16.006 16.006 0 008.584 7.103 16.08 16.08 0 005.293.896c1.944 0 3.884-.353 5.718-1.057a.625.625 0 10-.45-1.167 14.677 14.677 0 01-14.113-1.937l.56-2.923.27-.088a1.946 1.946 0 001.25-2.45l-.198-.609a.69.69 0 010-.43 1.943 1.943 0 00-1.475-2.515l-1.412-.276-2.725-2.07a.626.626 0 00-.572-.096l-1.595.517c-.034-.57-.035-1.14-.002-1.706.063.059.104.098.129.125.031.052.07.1.115.14.13.119.248.173.496.173.228 0 .565-.046 1.121-.128a63.77 63.77 0 001.058-.167.626.626 0 00.414-.968l-.767-1.124 1.098-.785a.626.626 0 00.18-.197l1.703-2.97.686-.736c.702-.75.902-1.85.51-2.8a2.875 2.875 0 00-1.14-1.34 14.82 14.82 0 011.75-1.184 14.681 14.681 0 017.21-1.97l-1.118 1.4-4.142 1.45a.625.625 0 00-.372.352L9.06 7.265a.625.625 0 00.07.602l1.69 2.364c-.243.22-.478.542-.76.94a6.51 6.51 0 01-.32.434c-.07.08-.14.16-.21.237-.363.409-.739.83-1.006 1.395-.587 1.241-.468 2.684.31 3.765.752 1.045 1.992 1.577 3.315 1.421.215-.025.417-.075.611-.123.536-.132.706-.146.878.015.084.079.092.093.09.359-.001.169-.002.38.056.62.093.383.335.649.529.862.096.106.196.216.227.29.195.466.11.725-.076 1.292l-.049.149c-.283.874.111 1.742.46 2.507.112.249.219.484.289.69.562 1.668.984 2.05 1.322 2.204.178.08.361.116.546.116.902 0 1.843-.837 2.276-1.367.271-.333.338-.667.387-.91.024-.121.043-.217.08-.28.056-.095.122-.17.205-.263.168-.189.377-.424.512-.85.103-.322.177-.402.425-.665l.138-.148c.833-.905.618-1.597.391-2.33-.191-.616.143-1.01.952-1.763.35-.326.713-.664.994-1.069.122-.177.495-.717.264-1.252-.226-.524-.801-.612-1.263-.683-.183-.028-.458-.07-.546-.127-.387-.253-.624-.78-.853-1.291-.046-.102-.09-.202-.136-.3a10.074 10.074 0 01-.25-.605c-.227-.589-.485-1.256-.924-1.72-.394-.419-1.139-.62-1.795-.798-.22-.06-.43-.116-.567-.166a.625.625 0 00-.36-.023c-.319.075-.518.158-.666.276a.776.776 0 00-.223.3c-.229-.11-.544-.32-.738-.449l-.012-.008a.885.885 0 00-.055-.602c-.35-.738-1.51-.68-1.739-.66-.13.01-.294.016-.468.022-.274.01-.576.02-.875.054l.016-.043a1.6 1.6 0 011.502-1.055h.356a.625.625 0 100-1.25h-.356c-.997 0-1.91.524-2.422 1.349l-.933-1.306.918-2.223 4.048-1.418a.626.626 0 00.282-.2l1.8-2.255c4.598.437 8.926 3.012 11.407 7.304a14.576 14.576 0 011.474 3.577l-.265.236a1.669 1.669 0 00-.558 1.23l-.432-1.187a1.56 1.56 0 00-.281-.483l-.771-.902a1.569 1.569 0 00-1.194-.55h-.943a.905.905 0 00-.754 1.408l.095.143a6.935 6.935 0 01-2.065 1.226l-1.294-2.475v-.552c0-.17-.07-.334-.193-.452l-1.165-1.11a.627.627 0 00-.224-.138l-1.049-.368a.626.626 0 00-.414 1.18l.92.322.874.833v.438c0 .101.025.2.071.29l1.62 3.098a.626.626 0 00.77.297l.472-.174a8.189 8.189 0 002.935-1.877.624.624 0 00.079-.788l-.034-.05h.3c.092 0 .18.04.242.111l.77.902a.311.311 0 01.057.098l.851 2.336a.625.625 0 001.03.228l.405-.404a1.95 1.95 0 00.517-.94c.626 5.013-1.341 10.199-5.5 13.46a.624.624 0 10.772.983 15.985 15.985 0 003.965-20.571zM2.958 17.672l2.58 1.96a.625.625 0 00.259.115l1.555.303a.686.686 0 01.466.33.685.685 0 01.06.568 1.93 1.93 0 00-.001 1.207l.198.61a.695.695 0 01-.446.874l-.622.202a.625.625 0 00-.42.477l-.501 2.61a14.914 14.914 0 01-2.85-3.552 14.658 14.658 0 01-1.818-5.204l1.54-.5zm3.646-9.968l-.736.787a.628.628 0 00-.085.116l-1.671 2.915-1.486 1.06a.625.625 0 00-.153.861l.556.814c-.32.048-.608.087-.799.108l-.115-.108a31.713 31.713 0 00-.663-.591 14.767 14.767 0 014.406-8.36c.457.143.831.483 1.014.927.206.499.1 1.076-.268 1.47zm5.101 3.415c.28-.157.927-.18 1.4-.197.19-.006.368-.013.528-.026a1.83 1.83 0 01.267 0 .624.624 0 00.288.778c.117.063.28.172.453.287.49.326 1.044.695 1.564.728.474.03.737-.239.85-.354l.027-.026a.67.67 0 00.167-.205c.1.029.205.057.313.086.37.1 1.06.287 1.212.448.27.287.482.832.668 1.313.094.243.183.473.282.686.043.091.085.185.128.28.289.644.616 1.373 1.31 1.826.315.206.7.265 1.041.317l.136.021c-.202.282-.49.55-.793.832-.775.72-1.739 1.618-1.295 3.048.21.676.22.749-.117 1.115l-.13.138c-.288.307-.516.55-.704 1.143-.055.172-.126.252-.255.397-.103.116-.232.26-.35.463a2.024 2.024 0 00-.227.664c-.037.185-.058.277-.13.366a3.646 3.646 0 01-.79.698c-.294.187-.466.212-.524.209-.067-.072-.309-.385-.674-1.468a8.804 8.804 0 00-.336-.808c-.267-.587-.542-1.193-.408-1.607l.047-.143c.214-.652.416-1.268.041-2.164-.114-.273-.295-.473-.455-.649-.104-.113-.22-.242-.239-.317a1.35 1.35 0 01-.02-.316c.002-.326.005-.82-.486-1.28-.693-.647-1.5-.447-2.034-.315-.164.04-.32.079-.457.095-.879.103-1.663-.229-2.153-.91-.513-.712-.587-1.67-.194-2.501.19-.402.477-.725.81-1.099l.219-.248c.122-.14.256-.33.398-.532.17-.24.485-.688.622-.773z" id="Shape"/><path d="M25.653 21.517l-.3-1.133a.625.625 0 00-1.156-.138c-.068.127-.13.26-.19.39-.1.217-.204.442-.312.566-.06.07-.216.145-.367.218-.36.174-.854.411-1.042 1.011-.117.373-.073.667-.041.882.027.187.033.251-.016.369l-.007.014c-.199.467-.57 1.336-.05 2.075.37.527.76.663 1.063.663.06 0 .116-.005.167-.014.638-.104 1.118-.767 1.51-2.087l.736-2.477a.624.624 0 00.005-.339zm-1.94 2.46c-.2.673-.377.988-.479 1.127a1.2 1.2 0 01-.038-.052c-.12-.17.06-.589.177-.866l.007-.015c.19-.447.14-.79.102-1.04-.024-.162-.032-.23-.002-.325.024-.078.17-.154.392-.26.098-.048.205-.1.314-.162l-.473 1.594z" id="Shape"/><path d="M16.894 7.429l-.042-.015a.626.626 0 00-.414 1.18l.042.014a.625.625 0 10.414-1.18z" id="Path"/></g></g></g></g></svg>
